X:1
T:Title
%%score { ( 1 3 6 ) | ( 2 4 5 ) }
L:1/8
Q:1/4=126
M:4/4
K:F
V:1 treble nm="Grand Piano"
V:3 treble 
V:6 treble 
V:2 bass 
V:4 bass 
V:5 bass 
V:1
 [Fd]4 [DB]2 [_EG]2 | z2 [G,B,]2 [B,D]-[B,-D-E]/[B,DF]/ G/A/B/c/ | [Fd]4 [DB]2 [_EG]2 | %3
w: Chas.~H.~Gabriel * *|||
 [_EG]4[K:bass] .F2[K:treble] z2 | _e2 c2 =B2 c2 | [Fd]2 [DB]2 [_EA]2 [B,FB]2 | z4 c4 | %7
w: ||||
 c6[K:bass] F,2[K:treble] | [Fd]4 [DB]2 [_EG]2 | z2 [G,B,]2 [B,D]-[B,-D-E]/[B,DF]/ G/A/B/c/ | %10
w: |||
 d4 z4 | [Fd]4 z4 | [GB]2 z2 z4 | z8 | z8 | [DB]6 z2 | B2 A2 G2 B2 | A3 ^F z E/F/ G/A/B/c/ | %18
w: ||||||||
 d2 c2 A2 c2 | B3 A G4 | c2 G2 ^F2 G2 | c2 A2 _A2 =A2 | c2 B2 A2 G2 | z2 C2 z E/F/ G/A/B/c/ | %24
w: ||||||
 [Fd]4 [DB]2 [_EG]2 | z2 [G,B,]2 [B,D]-[B,-D-E]/[B,DF]/ G/A/B/c/ | d4 z4 | [Fd]4 z4 | [GB]2 z2 z4 | %29
w: |||||
 z8 | z8 |[M:8/4] [DB]8 z8 |] %32
w: |||
V:2
 [B,,B,]2 [B,,B,]2 [B,,F,]2 [B,,G,]2 | [B,,G,B,]2 B,,2 B,,2 [B,,F,B,]2 | %2
 [B,,B,]2 [B,,B,]2 [B,,F,]2 [B,,G,]2 | [C,F,A,]2 C,2 z F [C,F,A,]2 | [CF]2 [A,F]2 [G,F]2 [A,F]2 | %5
 z2 F,4 z2 | C,2 D,2 E,2 C,2 | [F,A,]2 z2 z4[K:bass] | [B,,B,]2 [B,,B,]2 [B,,F,]2 [B,,G,]2 | %9
 [B,,G,B,]2 B,,2 B,,2 [B,,F,B,]2 | F2- [G,F]2 [G,B,DF]2 [G,B,F]2 | [C,C]2 C,2 C,2 C,2 | %12
 [^C,E,G,]2 [C,E,G,]2 [C,E,G,]2 [C,E,G,]2 | [D,F,]2 F,2 z2 E2 | F,2 F,6 | B,G,F,D, B,,2 z2 | %16
 B,2 A,2 G,2 B,2 | A,3 ^F, D,4 | [D,A,C]8 | [G,DG]3 [^F,CD] [G,B,D]4 | B,4 [A,_E]2 [B,=E]2 | %21
 A,2 C2 [^C,=B,]2 C2 | E2- [DE-]2 [CE-]2 [B,E]2 | [F,A,]2 _E,2 D,2 [C,F,A,]2 | %24
 [B,,B,]2 [B,,B,]2 [B,,F,]2 [B,,G,]2 | [B,,G,B,]2 B,,2 B,,2 [B,,F,B,]2 | %26
 F2- [G,F]2 [G,B,DF]2 [G,B,F]2 | [C,C]2 C,2 C,2 C,2 | [^C,E,G,]2 [C,E,G,]2 [C,E,G,]2 [C,E,G,]2 | %29
 [D,F,]2 F,2 z2 E2 | F,2 F,6 |[M:8/4] B,G,F,D, .B,,4 z8 |] %32
V:3
 x8 | [^CG]4 F2 z2 | x8 | z2[K:bass] [F,A,]2 [F,A,_E]->[F,A,EG][K:treble] A/B/c/d/ | x8 | x8 | %6
 E2 F2 G2 E2 | z2[K:bass] A,4 z[K:treble] _E | x8 | [^CG]4 F2 z2 | z2 B,2 =B2 G2 | %11
 z2 C2 [C_Ec]2 C2 | B,2- [B,-GB]2 [B,-GA]2 [B,-GB]2 | [B,-Ff]2 [B,-Fd]2 [B,-Ec]2 [B,-B]2 | %14
 [B,F-d-]2 [Fd]2 [_Ec]4 | x8 | x8 | z4 D4 | [D^F]8 | x8 | E4 z4 | F8 | x8 | F6 z2 | x8 | %25
 [^CG]4 F2 z2 | z2 B,2 =B2 G2 | z2 C2 [C_Ec]2 C2 | B,2- [B,-GB]2 [B,-GA]2 [B,-GB]2 | %29
 [B,-Ff]2 [B,-Fd]2 [B,-Ec]2 [B,-B]2 | [B,F-d-]2 [Fd]2 [_Ec]4 |[M:8/4] x16 |] %32
V:4
 x8 | x8 | x8 | z4 C,2 z2 | F,4 F,4 | B,2 z2 C,2 D,2 | x8 | %7
 F3- [G,F-] [F,F-][_E,F-][D,F][K:bass]C, | x8 | x8 | [G,B,]2 z2 z4 | x8 | x8 | z4 G,4 | %14
 F,,4 G,2 A,2 | x8 | x8 | x8 | x8 | x8 | C,8 | x8 | G,2 z2 z4 | x8 | x8 | x8 | [G,B,]2 z2 z4 | x8 | %28
 x8 | z4 G,4 | F,,4 G,2 A,2 |[M:8/4] x16 |] %32
V:5
 x8 | x8 | x8 | x8 | x8 | B,,4 z4 | x8 | x7[K:bass] x | x8 | x8 | x8 | x8 | x8 | x8 | x8 | x8 | %16
 x8 | x8 | x8 | x8 | x8 | C,4 z2 =C,2- | C,8 | x8 | x8 | x8 | x8 | x8 | x8 | x8 | x8 | %31
[M:8/4] x16 |] %32
V:6
 x8 | x8 | x8 | x2[K:bass] x4[K:treble] x2 | x8 | x8 | [B,-c]4 B,4 | x2[K:bass] x5[K:treble] x | %8
 x8 | x8 | x8 | x8 | x8 | x8 | x8 | x8 | x8 | x8 | x8 | x8 | x8 | x8 | x8 | z4 B,2 z2 | x8 | x8 | %26
 x8 | x8 | x8 | x8 | x8 |[M:8/4] x16 |] %32

